X:1
T:Title
%%score 1 { 2 | 3 }
L:1/8
Q:1/4=83
M:2/4
K:Ab
V:1 treble nm="Grand Piano, Soprano"
V:2 bass nm="Choir Pad, Christmas Carol (Abbey)"
V:3 bass 
V:1
 [CE]>[DF] [CE][CA] | [DG][DB] [DB]2 | [CA][Ec] [Ec]2 | [EB][Ed] [Ed]2 | [CE]>[DF] [CE][EA] | %5
w: By~Alonzo~Judson~Abbey * * *|||||
 [DG][DB] [DB]2 | [Ec][Fd]/[FB]/ [EA][EG] | [EA]4 | [EG]>[FA] [GB][Ac] | [GB][Ge] [Ge][Ge] | %10
w: |||||
 [F=d][Ge] [Af][Fd] | [Ge]4 | [CE]>[DF] [CE][EA] | [DG][DB] [DB]2 | [Ec][Fd]/[FB]/ [EA][EG] | %15
w: |||||
 [EA]4- | [EA]4 |] %17
w: ||
V:2
 A,>A, A,A, | B,G, G,2 | A,A, A,2 | G,B, B,2 | A,>A, A,C | B,G, G,2 | A,A,/B,/ CD | C4 | %8
 E,>E, E,E, | E,E, E,B, | B,B, B,B, | B,4 | A,>A, A,C | B,G, G,2 | A,A,/[K:treble]B,/ CD | C4- | %16
 C4 |] %17
V:3
 A,,>A,, A,,A,, | E,E, E,2 | z4 | E,E, E,2 | A,,>A,, A,,A,, | E,E, E,2 | z D,/D,/ E,E, | A,,4 | %8
 z4 | z2 z E, | B,,B,, B,,B,, | E,4 | A,,>A,, A,,A,, | E,E, E,2 | z D,/D,/ E,E, | A,,4- | A,,4 |] %17

